dist/img/svg/ic_ig.svg

<svg width="17" height="17" viewBox="0 0 17 17"  xmlns="http://www.w3.org/2000/svg">
<path d="M11.0909 0.720703H5.04134C2.25751 0.720703 0 2.89721 0 5.58115V11.4137C0 14.0976 2.25751 16.2741 5.04134 16.2741H11.0909C13.8748 16.2741 16.1323 14.0976 16.1323 11.4137V5.58115C16.1323 2.89721 13.8748 0.720703 11.0909 0.720703ZM14.6199 11.4137C14.6199 13.2898 13.0369 14.816 11.0909 14.816H5.04134C3.09538 14.816 1.5124 13.2898 1.5124 11.4137V5.58115C1.5124 3.70502 3.09538 2.17884 5.04134 2.17884H11.0909C13.0369 2.17884 14.6199 3.70502 14.6199 5.58115V11.4137Z" />
<path d="M8.06614 4.60906C5.83888 4.60906 4.03307 6.35007 4.03307 8.49742C4.03307 10.6448 5.83888 12.3858 8.06614 12.3858C10.2934 12.3858 12.0992 10.6448 12.0992 8.49742C12.0992 6.35007 10.2934 4.60906 8.06614 4.60906ZM8.06614 10.9276C6.67675 10.9276 5.54547 9.83696 5.54547 8.49742C5.54547 7.15691 6.67675 6.06719 8.06614 6.06719C9.45554 6.06719 10.5868 7.15691 10.5868 8.49742C10.5868 9.83696 9.45554 10.9276 8.06614 10.9276Z" />
<path d="M12.4017 4.83556C12.6985 4.83556 12.9391 4.60358 12.9391 4.31743C12.9391 4.03128 12.6985 3.79931 12.4017 3.79931C12.1049 3.79931 11.8643 4.03128 11.8643 4.31743C11.8643 4.60358 12.1049 4.83556 12.4017 4.83556Z" />
</svg>

<svg width="17" height="17" viewBox="0 0 17 17" xmlns="http://www.w3.org/2000/svg"><path d="M11.09.72H5.042C2.258.72 0 2.898 0 5.582v5.833c0 2.684 2.258 4.86 5.041 4.86h6.05c2.784 0 5.041-2.176 5.041-4.86V5.58c0-2.684-2.257-4.86-5.041-4.86zm3.53 10.694c0 1.876-1.583 3.402-3.53 3.402H5.042c-1.946 0-3.529-1.526-3.529-3.402V5.58c0-1.876 1.583-3.402 3.53-3.402h6.049c1.946 0 3.529 1.526 3.529 3.402v5.833z"/><path d="M8.066 4.61c-2.227 0-4.033 1.74-4.033 3.887 0 2.148 1.806 3.889 4.033 3.889 2.227 0 4.033-1.741 4.033-3.889 0-2.147-1.806-3.888-4.033-3.888zm0 6.318c-1.39 0-2.52-1.091-2.52-2.43 0-1.341 1.13-2.43 2.52-2.43 1.39 0 2.52 1.089 2.52 2.43 0 1.339-1.13 2.43-2.52 2.43zm4.336-6.092a.528.528 0 00.537-.519.528.528 0 00-.537-.518.528.528 0 00-.538.518c0 .287.24.519.538.519z"/></svg>
